svgs/sharp-solid/notes.svg

<svg xmlns="http://www.w3.org/2000/svg" viewBox="0 0 512 512"><!--! Font Awesome Pro 6.6.0 by @fontawesome - https://fontawesome.com License - https://fontawesome.com/license (Commercial License) Copyright 2024 Fonticons, Inc. --><path d="M480 32L96 32l0 384 256 0 0-96 0-32 32 0 96 0 0-256zM384 352l0 45.7 0 18.3 96-96-18.3 0L416 320l-32 0 0 32zM296 464L48 464l0-312 0-24L0 128l0 24L0 488l0 24 24 0 272 0 24 0 0-48-24 0z"/></svg>

<svg xmlns="http://www.w3.org/2000/svg" viewBox="0 0 512 512"><!--! Font Awesome Pro 6.4.2 by @fontawesome - https://fontawesome.com License - https://fontawesome.com/license (Commercial License) Copyright 2023 Fonticons, Inc. --><path d="M480 32H96V416H352V320 288h32 96V32zM384 352v45.7V416l96-96H461.7 416 384v32zM296 464H48l0-312V128L0 128v24V488v24H24 296h24V464H296z"/></svg>
